X: 13196
T: First Trout, The
R: jig
M: 6/8
K: Amixolydian
E|:ABA GED|EA^G ~A3|B/c/de ~g3|edB ~G3|
gdB gdB|=cBA GED|CDE GED|1 EA^G A2 E:|2 EA^G Ace|
|:aec cdd|ABA GED|aef ~g3|gdB gdB|
aec cdd|ABA GED|CDE GED|1 EA^G Ace:|2 EA^G ACD|
|:E2 A EAA|EAE ~G3|EAA EAA|B/c/de ~g3|
gdB gdB|=cBA GED|CDE GED|1 EA^G ACD:|2 EA^G A2 E||

